svgs/icons/sm/money.svg

<svg xmlns="http://www.w3.org/2000/svg" viewBox="0 0 16 16" enable-background="new 0 0 16 16"><g fill="#34363D"><circle cx="8" cy="6" r="2"/><path d="M15 3v6h-14v-6h14m0-1h-14c-.5 0-1 .5-1 1v6c0 .6.5 1 1 1h14c.5 0 1-.4 1-1v-6c0-.5-.5-1-1-1zM14 13c0 .6-.4 1-1 1h-10c-.5 0-1-.4-1-1h12zM15 11c0 .6-.4 1-1 1h-12c-.5 0-1-.4-1-1h14z"/></g></svg>

<svg xmlns="http://www.w3.org/2000/svg" viewBox="0 0 16 16"><g fill="#34363D"><circle cx="8" cy="6" r="2"/><path d="M15 3v6H1V3h14m0-1H1c-.5 0-1 .5-1 1v6c0 .6.5 1 1 1h14c.5 0 1-.4 1-1V3c0-.5-.5-1-1-1zm-1 11c0 .6-.4 1-1 1H3c-.5 0-1-.4-1-1h12zm1-2c0 .6-.4 1-1 1H2c-.5 0-1-.4-1-1h14z"/></g></svg>
